images/icons/logo.svg

<svg xmlns="http://www.w3.org/2000/svg" xmlns:xlink="http://www.w3.org/1999/xlink" width="180" height="180" viewBox="0 0 180 180">
  <defs>
    <path id="transparent-a" d="M78.8702354,179.318606 C74.2897244,178.753679 69.8157887,177.84459 65.4750969,176.618006 C67.6098787,168.913039 71.3057069,162.649638 76.5625814,157.827804 C77.3840844,159.821716 78.0388628,161.758361 78.5269166,163.637737 C79.5784018,167.68675 79.9601134,172.08968 79.6720515,176.846526 C79.40964,177.645193 79.142368,178.469219 78.8702354,179.318606 Z"/>
    <path id="transparent-b" d="M53.8193262,172.432037 C49.7844475,170.65852 45.9045538,168.597444 42.2055898,166.274753 C42.9246463,159.992396 42.7163648,155.473727 41.5807452,152.718744 C42.7037671,152.064965 43.9368941,151.510391 45.2868307,151.071461 C55.6021077,151.936089 64.30137,150.875838 71.3846176,147.890706 C71.6354517,148.294612 71.8805408,148.696545 72.1198849,149.096504 C62.0178088,155.713986 55.9176259,163.492495 53.8193262,172.432037 Z"/>
  </defs>
  <g fill="none" fill-rule="evenodd">
    <path fill="#1B1D23" d="M53.8193262,172.432037 C55.9176259,163.492495 62.0178088,155.713986 72.1198849,149.096504 C73.9290196,152.119683 75.4099185,155.030116 76.5625814,157.827804 C71.3057069,162.649638 67.6098787,168.913039 65.4750969,176.618006 C61.4693816,175.486079 57.5771385,174.083769 53.8193262,172.432037 L53.8193262,172.432037 Z M42.2055898,166.274753 C39.476194,164.560882 36.8453087,162.704571 34.3233572,160.716241 C35.8919651,157.46447 38.2529451,154.656056 41.5807452,152.718744 C42.7163648,155.473727 42.9246463,159.992396 42.2055898,166.274753 L42.2055898,166.274753 Z M78.8702354,179.318606 C79.142368,178.469219 79.40964,177.645193 79.6720515,176.846526 C79.62139,177.683113 79.5500122,178.530647 79.4579181,179.389128 C79.2618307,179.366251 79.0659358,179.342743 78.8702354,179.318606 L78.8702354,179.318606 Z M13.7072293,137.765704 C5.02202826,123.922664 0,107.547811 0,90 C0,40.2943725 40.2943725,0 90,0 C139.705627,0 180,40.2943725 180,90 C180,137.632635 142.996527,176.622645 96.1676302,179.791983 C93.9225265,170.596953 93.3843715,164.295572 94.5531652,160.887839 C97.9876217,160.887839 109.518676,150.40367 109.518676,138.373959 C109.518676,126.344248 112.755043,110.396107 124.041842,110.616942 C135.328642,110.837777 137.26514,118.146909 138.346678,112.08298 C130.932071,104.861702 129.842299,97.3845309 135.077361,89.651465 C157.145578,88.9330594 168.179687,80.0994308 168.179687,63.1505792 C168.179687,49.0378407 161.606675,41.5142249 155.284777,36.993336 C147.858271,31.6825234 141.459089,31.2000517 136.087233,35.5459209 C137.131254,32.8555139 139.912142,31.1096868 144.429898,30.3084396 C141.662536,26.6849454 136.730081,24.7945499 131.408845,27.5996717 C126.08761,30.4047936 127.038142,42.2976969 136.730081,42.2976969 C146.42202,42.2976969 148.181484,47.2943429 149.468587,50.4120728 C150.75569,53.5298027 148.181484,63.1505792 136.730081,63.1505792 C125.278677,63.1505792 128.413472,54.5202729 108.555417,54.5202729 C99.448829,54.5202729 84.0914614,63.1505792 84.0914614,73.4949361 C84.0914614,80.5343069 86.8882899,84.0640206 94.5531652,85.0677209 C102.218041,86.0714212 105.34748,89.9775846 104.121351,93.2492184 C99.0914032,106.670434 82.857358,94.0033928 81.3004261,104.464667 C75.7932735,93.9057724 79.9319207,77.5741631 79.5100973,79.6864929 C27.3479436,76.7864182 14.9109659,110.616942 13.0258775,119.014839 C11.7691519,124.613436 11.7691519,130.039237 13.0258775,135.292242 C13.2643033,136.123059 13.4914206,136.947546 13.7072293,137.765704 Z"/>
    <use fill="#000" fill-opacity=".1" xlink:href="#transparent-a"/>
    <use fill="#000" fill-opacity=".1" xlink:href="#transparent-b"/>
  </g>
</svg>

<svg xmlns="http://www.w3.org/2000/svg" xmlns:xlink="http://www.w3.org/1999/xlink" width="180" height="180" viewBox="0 0 180 180">
  <defs>
    <path id="a" d="M78.87 179.319a89.554 89.554 0 01-13.395-2.701c2.135-7.705 5.83-13.968 11.088-18.79a44.928 44.928 0 011.964 5.81c1.051 4.049 1.433 8.452 1.145 13.209-.262.798-.53 1.622-.802 2.472z"/>
    <path id="b" d="M53.82 172.432a89.759 89.759 0 01-11.614-6.157c.719-6.283.51-10.801-.625-13.556a19.05 19.05 0 013.706-1.648c10.315.865 19.014-.195 26.098-3.18.25.404.496.806.735 1.206-10.102 6.617-16.202 14.395-18.3 23.335z"/>
  </defs>
  <g fill="none" fill-rule="evenodd">
    <path fill="#1B1D23" d="M53.82 172.432c2.098-8.94 8.198-16.718 18.3-23.335 1.809 3.023 3.29 5.933 4.443 8.73-5.257 4.823-8.953 11.086-11.088 18.791a89.332 89.332 0 01-11.656-4.186zm-11.614-6.157a90.246 90.246 0 01-7.883-5.559c1.569-3.252 3.93-6.06 7.258-7.997 1.135 2.755 1.344 7.273.625 13.556zm36.664 13.044c.272-.85.54-1.674.802-2.472-.05.836-.122 1.684-.214 2.542a90.03 90.03 0 01-.588-.07zm-65.163-41.553C5.022 123.923 0 107.548 0 90 0 40.294 40.294 0 90 0s90 40.294 90 90c0 47.633-37.003 86.623-83.832 89.792-2.245-9.195-2.784-15.496-1.615-18.904 3.435 0 14.966-10.484 14.966-22.514s3.236-27.978 14.523-27.757c11.287.22 13.223 7.53 14.305 1.466-7.415-7.221-8.505-14.698-3.27-22.432 22.069-.718 33.103-9.552 33.103-26.5 0-14.113-6.573-21.637-12.895-26.158-7.427-5.31-13.826-5.793-19.198-1.447 1.044-2.69 3.825-4.436 8.343-5.238-2.767-3.623-7.7-5.513-13.021-2.708-5.321 2.805-4.37 14.698 5.321 14.698 9.692 0 11.451 4.996 12.739 8.114 1.287 3.118-1.288 12.739-12.739 12.739s-8.317-8.63-28.175-8.63c-9.106 0-24.464 8.63-24.464 18.974 0 7.04 2.797 10.569 10.462 11.573 7.665 1.003 10.794 4.91 9.568 8.181-5.03 13.421-21.264.754-22.82 11.216-5.508-10.56-1.37-26.89-1.79-24.779-52.163-2.9-64.6 30.93-66.485 39.329-1.257 5.598-1.257 11.024 0 16.277.238.831.465 1.656.681 2.474z"/>
    <use fill="#000" fill-opacity=".1" xlink:href="#a"/>
    <use fill="#000" fill-opacity=".1" xlink:href="#b"/>
  </g>
</svg>
